X: 1
T: Boston Boys
R: reel
M: 4/4
L: 1/8
K: Cmaj
CECE GAGE|Dddc ~d2 cA|GcEc GAca|gedg ec ~c2|
CECE GAGE|Dddc dcAc|GcEc GAca|gedg ecGE||
~c2(ec) gcec|cdea gede|~c2 ec gcec|GAcg eccB|
~c2ec gcec|cdea gedg|cdcA GAca|gedg ec~c2||

